virtual-reality.svg

<svg fill="currentColor" viewBox="0 0 24 24"><path d="M5 3a2 2 0 0 0-2 2v14a2 2 0 0 0 2 2h14a2 2 0 0 0 2-2V5a2 2 0 0 0-2-2zm1 6h1.5l1 3.43L9.5 9H11l-1.75 6h-1.5zm7 0h3.5c.85 0 1.5.65 1.5 1.5v1c0 .6-.4 1.15-.9 1.4L18 15h-1.5l-.85-2H14.5v2H13zm1.5 1.5v1h2v-1z"/></svg>

<svg  viewBox="0 0 24 24" fill="currentColor"><path  d="M5,3C3.89,3 3,3.9 3,5V19A2,2 0 0,0 5,21H19A2,2 0 0,0 21,19V5A2,2 0 0,0 19,3H5M6,9H7.5L8.5,12.43L9.5,9H11L9.25,15H7.75L6,9M13,9H16.5C17.35,9 18,9.65 18,10.5V11.5C18,12.1 17.6,12.65 17.1,12.9L18,15H16.5L15.65,13H14.5V15H13V9M14.5,10.5V11.5H16.5V10.5H14.5Z"/></svg>
